Gruvbox-Plus-Dark/actions/16/project-development-close.svg

<svg xmlns="http://www.w3.org/2000/svg" width="16" height="16" viewBox="0 0 16 16">
 <defs>
  <style id="current-color-scheme" type="text/css">
   .ColorScheme-Text { color:#ebdbb2; } .ColorScheme-Highlight { color:#458588; }
  </style>
 </defs>
 <path style="fill:currentColor" class="ColorScheme-Text" d="M 2 1 C 1 1 1 2 1 2 L 1 14 C 1 15 2 15 2 15 L 9 15 L 9 13 L 3 13 L 3 6 L 13 6 L 13 9 L 15 9 L 15 2 C 15 1 14 1 14 1 L 2 1 z M 11.414062 10.34375 L 10 11.757812 L 11.414062 13.171875 L 10 14.585938 L 11.414062 16 L 12.828125 14.585938 L 14.242188 16 L 15.65625 14.585938 L 14.242188 13.171875 L 15.65625 11.757812 L 14.242188 10.34375 L 12.828125 11.757812 L 11.414062 10.34375 z"/>
</svg>

<svg width="16" height="16" version="1.1" viewBox="0 0 16 16" xmlns="http://www.w3.org/2000/svg">
  <defs>
    <style type="text/css">.ColorScheme-Text { color:#ebdbb2; } .ColorScheme-Highlight { color:#458588; }</style>
  </defs>
  <path class="ColorScheme-Text" d="m2 1c-1 0-1 1-1 1v12c0 1 1 1 1 1h7v-2h-6v-7h10v3h2v-7c0-1-1-1-1-1zm9.25 9-1.25 1.25 1.25 1.25-1.25 1.25 1.25 1.25 1.25-1.25 1.25 1.25 1.25-1.25-1.25-1.25 1.25-1.25-1.25-1.25-1.25 1.25z" fill="currentColor"/>
</svg>
